skins/elastic/images/microsoft-icon.svg

<svg xmlns="http://www.w3.org/2000/svg" xml:space="preserve" style="fill-rule:evenodd;clip-rule:evenodd;stroke-linejoin:round;stroke-miterlimit:2" viewBox="0 0 116 116"><path d="M26.088 145.515h51.555l-.004 51.555H26.088v-51.555Z" style="fill:#f65314" transform="translate(-22.061 -141.704)"/><path d="M82.907 145.515h51.555c0 17.185.003 34.37-.003 51.555-17.182-.003-34.367 0-51.549 0-.006-17.185-.003-34.37-.003-51.555Z" style="fill:#7fbb41" transform="translate(-22.061 -141.704)"/><path d="M26.088 202.331c17.185.006 34.37-.002 51.555.006.003 17.185 0 34.367 0 51.552H26.088v-51.558Z" style="fill:#00a1f1" transform="translate(-22.061 -141.704)"/><path d="M82.91 202.337c17.182-.006 34.367-.003 51.552-.003v51.555H82.907c.003-17.185-.003-34.37.003-51.552Z" style="fill:#fb0" transform="translate(-22.061 -141.704)"/></svg>

<?xml version="1.0" encoding="UTF-8" standalone="no"?>
<!DOCTYPE svg PUBLIC "-//W3C//DTD SVG 1.1//EN" "http://www.w3.org/Graphics/SVG/1.1/DTD/svg11.dtd">
<svg width="100%" height="100%" viewBox="0 0 116 116" version="1.1" xmlns="http://www.w3.org/2000/svg" xmlns:xlink="http://www.w3.org/1999/xlink" xml:space="preserve" style="fill-rule:evenodd;clip-rule:evenodd;stroke-linejoin:round;stroke-miterlimit:2;">
<g transform="matrix(1,0,0,1,-22.0613,-141.704)"><path d="M26.088,145.515L77.643,145.515L77.639,197.07L26.088,197.07L26.088,145.515Z" style="fill:rgb(246,83,20);"/></g>
<g transform="matrix(1,0,0,1,-22.0613,-141.704)"><path d="M82.907,145.515L134.462,145.515C134.462,162.7 134.465,179.885 134.459,197.07C117.277,197.067 100.092,197.07 82.91,197.07C82.904,179.885 82.907,162.7 82.907,145.515Z" style="fill:rgb(127,187,65);"/></g>
<g transform="matrix(1,0,0,1,-22.0613,-141.704)"><path d="M26.088,202.331C43.273,202.337 60.458,202.329 77.643,202.337C77.646,219.522 77.643,236.704 77.643,253.889L26.088,253.889L26.088,202.331Z" style="fill:rgb(0,161,241);"/></g>
<g transform="matrix(1,0,0,1,-22.0613,-141.704)"><path d="M82.91,202.337C100.092,202.331 117.277,202.334 134.462,202.334L134.462,253.889L82.907,253.889C82.91,236.704 82.904,219.519 82.91,202.337Z" style="fill:rgb(255,187,0);"/></g>
</svg>
